icons/paste-with-attribute-24.svg

<?xml version="1.0" encoding="UTF-8"?><svg id="icons" xmlns="http://www.w3.org/2000/svg" viewBox="0 0 24 24"><defs><style>.cls-1{fill:none;}.cls-1,.cls-2{stroke-width:0px;}</style></defs><path class="cls-2" d="M17,3v-1h-3c0-1.10461-.89545-2-2-2s-2,.89539-2,2h-3v1h-3v6h1v-5h2v2h10v-2h2v16h-3v1h4V3h-3ZM16,5h-8v-2h3v-1.3855c0-.33942.27515-.6145.6145-.6145h.771c.33936,0,.6145.27509.6145.6145v1.3855h3v2ZM1,23h14v-13H1v13ZM2,11h12v11H2v-11ZM3,19h1v1h-1v-1ZM3,13h1v1h-1v-1ZM3,16h1v1h-1v-1ZM5,19h8v1H5v-1ZM5,16h8v1H5v-1ZM5,13h8v1H5v-1Z"/><rect class="cls-1" width="24" height="24"/></svg>

<svg xmlns="http://www.w3.org/2000/svg" viewBox="0 0 24 24"><path d="M17 3V2h-3a2 2 0 1 0-4 0H7v1H4v6h1V4h2v2h10V4h2v16h-3v1h4V3h-3zm-1 2H8V3h3V1.615c0-.34.275-.615.615-.615h.77c.34 0 .615.275.615.615V3h3v2zM1 23h14V10H1v13zm1-12h12v11H2V11zm1 8h1v1H3v-1zm0-6h1v1H3v-1zm0 3h1v1H3v-1zm2 3h8v1H5v-1zm0-3h8v1H5v-1zm0-3h8v1H5v-1z" stroke-width="0"/><path stroke-width="0" fill="none" d="M0 0h24v24H0z"/></svg>
